assets/icons/qvision/alarm_on.svg

<svg width="24" height="24" viewBox="0 0 24 24" fill="none" xmlns="http://www.w3.org/2000/svg">
<g clip-path="url(#clip0_147_3860)">
<path d="M22 5.71999L17.4 1.85999L16.11 3.38999L20.71 7.24999L22 5.71999ZM7.88 3.38999L6.6 1.85999L2 5.70999L3.29 7.23998L7.88 3.38999ZM12 3.99999C7.03 3.99999 3 8.02999 3 13C3 17.97 7.02 22 12 22C16.97 22 21 17.97 21 13C21 8.02999 16.97 3.99999 12 3.99999ZM12 20C8.13 20 5 16.87 5 13C5 9.12999 8.13 5.99999 12 5.99999C15.87 5.99999 19 9.12999 19 13C19 16.87 15.87 20 12 20ZM10.54 14.53L8.41 12.4L7.35 13.46L10.53 16.64L16.53 10.64L15.47 9.57999L10.54 14.53Z" fill="#323232"/>
</g>
<defs>
<clipPath id="clip0_147_3860">
<rect width="24" height="24" fill="white"/>
</clipPath>
</defs>
</svg>

<svg xmlns="http://www.w3.org/2000/svg" height="24" viewBox="0 0 24 24" width="24"><path d="M0 0h24v24H0z" fill="none"/><path d="M22 5.72l-4.6-3.86-1.29 1.53 4.6 3.86L22 5.72zM7.88 3.39L6.6 1.86 2 5.71l1.29 1.53 4.59-3.85zM12 4c-4.97 0-9 4.03-9 9s4.02 9 9 9c4.97 0 9-4.03 9-9s-4.03-9-9-9zm0 16c-3.87 0-7-3.13-7-7s3.13-7 7-7 7 3.13 7 7-3.13 7-7 7zm-1.46-5.47L8.41 12.4l-1.06 1.06 3.18 3.18 6-6-1.06-1.06-4.93 4.95z"/></svg>
